svgs/duotone/conveyor-belt-empty.svg

<svg xmlns="http://www.w3.org/2000/svg" viewBox="0 0 640 512"><!--! Font Awesome Pro 6.3.0 by @fontawesome - https://fontawesome.com License - https://fontawesome.com/license (Commercial License) Copyright 2023 Fonticons, Inc. --><defs><style>.fa-secondary{opacity:.4}</style></defs><path class="fa-secondary" d="M544 320H96c-54.4 0-96 41.6-96 96s41.6 96 96 96h448c54.4 0 96-41.6 96-96S598.4 320 544 320zM128 448c-19.2 0-32-12.8-32-32s12.8-32 32-32s32 12.8 32 32S147.2 448 128 448zM320 448c-19.2 0-32-12.8-32-32s12.8-32 32-32s32 12.8 32 32S339.2 448 320 448zM512 448c-19.2 0-32-12.8-32-32s12.8-32 32-32s32 12.8 32 32S531.2 448 512 448z"/></svg>

<svg xmlns="http://www.w3.org/2000/svg" viewBox="0 0 640 512"><!-- Font Awesome Pro 6.0.0-alpha2 by @fontawesome - https://fontawesome.com License - https://fontawesome.com/license (Commercial License) --><defs><style>.fa-secondary{opacity:.4}</style></defs><path d="M544 320H96C41.6 320 0 361.6 0 416S41.6 512 96 512H544C598.4 512 640 470.4 640 416S598.4 320 544 320ZM128 448C108.8 448 96 435.2 96 416S108.8 384 128 384S160 396.8 160 416S147.2 448 128 448ZM320 448C300.8 448 288 435.2 288 416S300.8 384 320 384S352 396.8 352 416S339.2 448 320 448ZM512 448C492.8 448 480 435.2 480 416S492.8 384 512 384S544 396.8 544 416S531.2 448 512 448Z" class="fa-secondary"/></svg>
